static/logos/gumroad-wordmark-color.svg

<svg width="100" height="14" viewBox="0 0 100 14" fill="none" xmlns="http://www.w3.org/2000/svg">
<g clip-path="url(#clip0_1_2534)">
<path d="M59.4408 0.000244141C57.3749 0.000244141 55.3553 1.87106 55.1231 4.5742V0.223089H52.1562V13.3428H55.1594V6.99234C55.1594 5.21343 56.4203 2.70406 59.4408 2.70406V0.000244141Z" fill="black"/>
<path d="M90.941 11.2425V2.25387H92.6806C95.0001 2.25387 96.8851 3.70364 96.8851 6.6757C96.8851 9.6477 95.0001 11.2425 92.6806 11.2425H90.941ZM87.9688 13.3447H93.0433C96.1601 13.3447 100.002 11.315 100.002 6.6757C100.002 2.10889 96.1601 0.224182 93.0433 0.224182H87.9688V13.3447Z" fill="black"/>
<path d="M76.5914 6.82084C76.5914 4.42871 77.8237 2.47151 79.8532 2.47151C81.8105 2.47151 82.8978 4.42871 82.8978 6.82084C82.8978 9.21297 81.8105 11.1702 79.8532 11.1702C77.8237 11.1702 76.5914 9.21297 76.5914 6.82084ZM73.5469 6.96579C73.5469 10.8802 75.5764 13.6348 78.766 13.6348C81.0855 13.6348 82.4628 12.1125 83.1878 9.64788V13.3448H86.1591V0.224363H83.1878V3.70382C82.5355 1.38418 81.1582 0.00689697 78.9837 0.00689697C75.7214 0.00689697 73.5469 2.97894 73.5469 6.96579Z" fill="black"/>
<path d="M5.87159 13.6348C2.17466 13.6348 0 10.6627 0 6.96579C0 3.12391 2.39213 0.00689697 6.95891 0.00689697C11.6707 0.00689697 13.2655 3.1964 13.3379 5.00861H9.93095C9.85845 3.99378 8.98859 2.47151 6.88641 2.47151C4.63927 2.47151 3.1895 4.42871 3.1895 6.82084C3.1895 9.21297 4.63927 11.1702 6.88641 11.1702C8.91609 11.1702 9.78595 9.57543 10.1484 7.98065H6.88641V6.67584H13.7312V13.3448H10.7283V9.14047C10.5109 10.6627 9.5685 13.6348 5.87159 13.6348Z" fill="black"/>
<path d="M19.8168 13.6346C16.9897 13.6346 15.25 11.7499 15.25 7.98047V0.224182H18.2945V7.98047C18.2945 9.93765 19.2369 10.88 20.8316 10.88C23.9486 10.88 25.1085 7.03811 25.1085 4.35604V0.224182H28.153V13.3447H25.1809V8.48788C24.601 11.17 23.0063 13.6346 19.8168 13.6346Z" fill="black"/>
<path d="M46.3504 0C43.7529 0 42.1143 2.50919 41.5794 4.82923C41.488 1.72009 39.959 0 37.5126 0C35.399 0 33.4381 1.88488 32.9288 4.86677V0.223192H29.9609V13.344H32.9669V8.64023C32.9669 7.47409 33.453 2.68861 36.479 2.68861C38.4393 2.68861 38.6436 4.45679 38.6436 6.87377V13.344H41.6482V8.64023C41.6482 7.47409 42.1544 2.68861 45.1804 2.68861C47.1391 2.68861 47.3413 4.45679 47.3413 6.87377V13.344H50.35V5.58309C50.3636 1.85989 49.0491 0 46.3504 0Z" fill="black"/>
<path d="M65.8876 0C61.9962 0 59.3594 3.05126 59.3594 6.81736C59.3594 10.9671 61.8671 13.6347 65.8876 13.6347C69.7789 13.6347 72.4626 10.5835 72.4626 6.81736C72.4626 2.66768 69.9062 0 65.8876 0ZM65.8876 11.3123C63.6221 11.3123 62.1548 9.39436 62.1548 6.81736C62.1548 4.24038 63.6271 2.3224 65.8876 2.3224C68.1476 2.3224 69.5612 4.24038 69.5612 6.81736C69.5612 9.39436 68.1462 11.3123 65.8876 11.3123Z" fill="black"/>
</g>
<defs>
<clipPath id="clip0_1_2534">
<rect width="100" height="13.6364" fill="white"/>
</clipPath>
</defs>
</svg>

<svg xmlns="http://www.w3.org/2000/svg" width="457.143" height="64" fill="none" viewBox="0 0 100 14"><g fill="#000" clip-path="url(#a)"><path d="M59.44 0c-2.065 0-4.085 1.871-4.317 4.574V.224h-2.967v13.119h3.003v-6.35c0-1.78 1.261-4.289 4.282-4.289V0ZM90.941 11.242V2.255h1.74c2.32 0 4.204 1.45 4.204 4.422 0 2.972-1.885 4.566-4.204 4.566h-1.74Zm-2.972 2.103h5.074c3.117 0 6.959-2.03 6.959-6.67 0-4.566-3.842-6.45-6.959-6.45H87.97v13.12ZM76.591 6.82c0-2.391 1.233-4.348 3.262-4.348 1.958 0 3.045 1.957 3.045 4.349 0 2.392-1.087 4.35-3.045 4.35-2.03 0-3.262-1.958-3.262-4.35Zm-3.044.146c0 3.914 2.03 6.669 5.219 6.669 2.32 0 3.697-1.522 4.422-3.987v3.697h2.971V.225h-2.971v3.479c-.653-2.32-2.03-3.697-4.204-3.697-3.263 0-5.437 2.972-5.437 6.959ZM5.872 13.635C2.175 13.635 0 10.663 0 6.965 0 3.125 2.392.008 6.959.008c4.712 0 6.306 3.19 6.379 5.002H9.93c-.073-1.015-.942-2.537-3.045-2.537-2.247 0-3.697 1.957-3.697 4.349 0 2.392 1.45 4.35 3.697 4.35 2.03 0 2.9-1.596 3.262-3.19H6.886V6.676h6.845v6.669h-3.003V9.14c-.217 1.523-1.16 4.495-4.856 4.495ZM19.817 13.635c-2.827 0-4.567-1.885-4.567-5.655V.224h3.044V7.98c0 1.958.943 2.9 2.538 2.9 3.117 0 4.276-3.842 4.276-6.524V.224h3.045v13.12h-2.972V8.489c-.58 2.682-2.175 5.147-5.364 5.147ZM46.35 0c-2.597 0-4.236 2.51-4.77 4.83C41.487 1.72 39.958 0 37.512 0c-2.114 0-4.075 1.885-4.584 4.867V.223H29.96v13.121h3.006V8.64c0-1.166.486-5.951 3.512-5.951 1.96 0 2.165 1.768 2.165 4.185v6.47h3.004V8.64c0-1.166.506-5.951 3.532-5.951 1.96 0 2.161 1.768 2.161 4.185v6.47h3.009v-7.76C50.364 1.86 49.05 0 46.35 0ZM65.888 0c-3.892 0-6.529 3.051-6.529 6.817 0 4.15 2.508 6.818 6.529 6.818 3.89 0 6.575-3.051 6.575-6.818 0-4.15-2.557-6.817-6.575-6.817Zm0 11.312c-2.266 0-3.733-1.918-3.733-4.495s1.472-4.495 3.733-4.495c2.26 0 3.673 1.918 3.673 4.495s-1.415 4.495-3.673 4.495Z"/></g><defs><clipPath id="a"><path fill="#fff" d="M0 0h100v13.636H0z"/></clipPath></defs></svg>
